!!!!SEGMENT: pl-sa--58-a-i-58--001-003_lechleitner-ferdinand-simon--vesperae-in-f-confitebor.krn
!!!cenid: 17xx:413a
!!!COM: Lechleitner, Ferdinand Simon
!!!COM-rismID: pe30001903
!!!CDT: ~1700-~1800
!!!CNT:
!!!OPR: Vesperae in F
!!!OTL: Confitebor
!!!OMV: 003
!!!PDT: 1726
!!!AGN: Sacred; Vespers
!!!YEC: Copyright 2022 Narodowy Instytut Fryderyka Chopina (https://polishscores.org)
!!!YEM: License CC-BY-4.0 (https://creativecommons.org/licenses/by/4.0)
!!!SMS-siglum: PL-SA
!!!SMS-shelfmark: 58/A I 58
!!!SMS-shelfwork: 001-003 M
!!!NIFC-rismSourceID: 1001068282
!!!NIFC-rismChildID: 1001068282
!!!NIFC-islandoraID: none
!!!URL-pdf-islandora:
!!!URL-scan: https://bc.bdsandomierz.pl/dlibra/publication/1347/edition/1315/content @EN{Scan in the Sandomierz Diocese Digital Library} @PL{Skany w portalu Cyfrowa Biblioteka Diecezjalna w Sandomierzu}
!!!IIIF:
!!!ONB-nifc: UWAGA: części Vespere: Domine ad adiuvandum, Dixit dominus, Confitebor, Beatus vir, Laudate pueri, Laudate Dominum, Magnificat
!!!AIN: 1 alto 1 empty 2 liuto 1 organ 1 tenor 2 violn 1 vox
!!!key:
**kern	**fb	**kern	**kern	**kern	**text	**kern	**text	**kern	**text	**kern	**text	**kern	**kern
*group	*	*group3	*group3	*group2	*	*group2	*	*group2	*	*group2	*	*group1	*group1
*part9	*	*part8	*part7	*part6	*	*part5	*	*part4	*	*part3	*	*part2	*part1
*staff9	*	*staff8	*staff7	*staff6	*	*staff5	*	*staff4	*	*staff3	*	*staff2	*staff1
*Iorgan	*	*Ivioln	*Ivioln	*Iempty	*	*Itenor	*	*Ialto	*	*Ivox	*	*Iliuto	*Iliuto
*I"Organo	*	*I"Violino 2do.	*I"Violino 1mo.	*I"Baſsus.	*	*I"Tenor	*	*I"Altus	*	*I"Cantus	*	*I"Lituo 2do.	*I"Lituo 1mo.
*I'org	*	*I'vn1	*I'vn1	*I'B	*	*I'T	*	*I'A	*	*I'S	*	*I'lituo 2	*I'lituo 1
*clefF4	*	*clefG2	*clefG2	*clefF4	*	*clefC4	*	*clefC3	*	*clefC1	*	*clefG2	*clefG2
*	*	*	*	*	*	*	*	*	*	*	*	*ITrd-3c-5	*ITrd-3c-5
*k[b-]	*	*k[b-]	*k[b-]	*k[b-]	*	*k[b-]	*	*k[b-]	*	*k[b-]	*	*k[b-]	*k[b-]
*d:	*	*d:	*d:	*d:	*	*d:	*	*d:	*	*d:	*	*	*
*M2/2	*	*M2/2	*M2/2	*M2/2	*	*M2/2	*	*M2/2	*	*M2/2	*	*M2/2	*M2/2
*met(C.)	*	*met(C.)	*met(C.)	*met(C.)	*	*met(c|)	*	*met(c|)	*	*met(C.)	*	*met(c|)	*met(c|)
=1	=1	=1	=1	=1	=1	=1	=1	=1	=1	=1	=1	=1	=1
*	*above	*	*	*	*	*	*	*	*	*	*	*	*
!LO:TX:a:t=solo	!	!	!	!	!	!	!	!	!	!	!	!	!
!LO:TX:a:i:t=Largo	!	!LO:TX:b:i:t=Confitebor	!LO:TX:b:i:t=Confitebor.	!	!	!LO:TX:a:i:t=Solo	!	!	!	!	!	!	!
!LO:TX:b:t=Confitebor	!	!LO:TX:a:i:t=Largo	!LO:TX:a:i:t=Largo	!LO:TX:a:i:t=Solo	!	!LO:TX:b:i:t=Confitebor	!	!LO:TX:b:i:t=Confitebor	!	!LO:TX:b:i:t=Confitebor.	!	!	!
8D\L	.	0r	0r	4r	.	00r	.	00r	.	00r	.	1ryy	1ryy
8E\	.	.	.	.	.	.	.	.	.	.	.	.	.
8F\	.	.	.	8D/	Con-	.	.	.	.	.	.	.	.
8D\J	.	.	.	8D/	-fi-	.	.	.	.	.	.	.	.
8C#X/L	.	.	.	(>16A\LL	-te-	.	.	.	.	.	.	.	.
.	.	.	.	16G\JJ)	.	.	.	.	.	.	.	.	.
8AA/J	X #	.	.	(>16A\LL	-bor	.	.	.	.	.	.	.	.
.	.	.	.	16B-\JJ)	.	.	.	.	.	.	.	.	.
8r	.	.	.	(>16A\LL	ti-	.	.	.	.	.	.	.	.
.	.	.	.	16B-\JJ)	.	.	.	.	.	.	.	.	.
8AA/	X #	.	.	(>16A\LL	-bi	.	.	.	.	.	.	.	.
.	.	.	.	16G\JJ)	.	.	.	.	.	.	.	.	.
=2	=2	=2	=2	=2	=2	=2	=2	=2	=2	=2	=2	=2	=2
16D\LL	X n	.	.	8.F\	Do-	.	.	.	.	.	.	1ryy	1ryy
16C#X\	.	.	.	.	.	.	.	.	.	.	.	.	.
16D\	.	.	.	.	.	.	.	.	.	.	.	.	.
16E\JJ	.	.	.	16E\	-mi-	.	.	.	.	.	.	.	.
!	!	!	!	!LO:TX:a:t=P:global:problem=w źródle kreski oddechowe zapisywane w dolnej części pięciolinii	!	!	!	!	!	!	!	!	!
16D\LL	.	.	.	8D,/	-ne	.	.	.	.	.	.	.	.
16F\	.	.	.	.	.	.	.	.	.	.	.	.	.
16E\	.	.	.	8d\	in	.	.	.	.	.	.	.	.
16D\JJ	.	.	.	.	.	.	.	.	.	.	.	.	.
8G\L	X -	.	.	16B-\LL	to-	.	.	.	.	.	.	.	.
.	.	.	.	16c\JJ	.	.	.	.	.	.	.	.	.
8F\	.	.	.	(>16B-\LL	-to	.	.	.	.	.	.	.	.
.	.	.	.	16A\JJ)	.	.	.	.	.	.	.	.	.
8E\	X 6	.	.	8G\	cor-	.	.	.	.	.	.	.	.
!LO:SIC:o=8C#\J	!	!	!	!	!	!	!	!	!	!	!	!	!
8Cn	.	.	.	8c\	-de	.	.	.	.	.	.	.	.
=3	=3	=3-	=3-	=3	=3	=3	=3	=3	=3	=3	=3	=3	=3
!	!	!LO:TX:a:i:t=Solo	!LO:TX:a:i:t=Solo&colon;	!	!	!	!	!	!	!	!	!	!
4F\	.	4r	4r	8A\	meo	.	.	.	.	.	.	1ryy	1ryy
.	.	.	.	8F\	.	.	.	.	.	.	.	.	.
8A\L	X 6	8f/L	8r	4r	.	.	.	.	.	.	.	.	.
8F\J	.	8f/J	8aa\	.	.	.	.	.	.	.	.	.	.
4E\	.	16cc\LL	16ee\LL	4r	.	.	.	.	.	.	.	.	.
.	.	16b-\	16dd\	.	.	.	.	.	.	.	.	.	.
.	.	16cc\	16ee\	.	.	.	.	.	.	.	.	.	.
.	X 8	16dd\JJ	16ff\JJ	.	.	.	.	.	.	.	.	.	.
4C/	.	16cc\LL	16ee\LL	8C/	in	.	.	.	.	.	.	.	.
.	X 7	16dd\	16ff\	.	.	.	.	.	.	.	.	.	.
.	.	16cc\	16dd\	8C/	con-	.	.	.	.	.	.	.	.
.	.	16b-\JJ	16ee\JJ	.	.	.	.	.	.	.	.	.	.
!	!	!	!	!LO:LB:g=original	!	!	!	!	!	!	!	!	!
=4	=4	=4	=4	=4	=4	=4	=4	=4	=4	=4	=4	=4	=4
!	!	!	!LO:TX:a:t=P:problem=mixed beam	!	!	!	!	!	!	!	!	!	!
4F\	.	8a\L	8ff\L	(>16F\LL	-si-	.	.	.	.	.	.	1ryy	1ryy
.	.	.	.	16E\JJ)	.	.	.	.	.	.	.	.	.
.	.	8f\J	8a/J	(>16F\LL	-li-	.	.	.	.	.	.	.	.
.	.	.	.	16G\JJ)	.	.	.	.	.	.	.	.	.
8F\L	X 6	8aa\L	8dd\L	16F\LL	-o	.	.	.	.	.	.	.	.
.	.	.	.	16G\JJ	.	.	.	.	.	.	.	.	.
8E\J	.	8gg\J	8dd\J	(>16F\LL	Ju-	.	.	.	.	.	.	.	.
.	.	.	.	16E\JJ)	.	.	.	.	.	.	.	.	.
4.D/	.	16ff\LL	16aa\LL	4D/	-sto-	.	.	.	.	.	.	.	.
.	.	16ee\	16gg\	.	.	.	.	.	.	.	.	.	.
.	.	16ff\	16aa\	.	.	.	.	.	.	.	.	.	.
.	.	16gg\JJ	16bb-\JJ	.	.	.	.	.	.	.	.	.	.
.	.	16ff\LL	16aa\LL	8D,/	-rum	.	.	.	.	.	.	.	.
.	.	16gg\	16bb-\	.	.	.	.	.	.	.	.	.	.
8AA/	X #	16ff\	16aa\	8AA/	et	.	.	.	.	.	.	.	.
.	.	16ee\JJ	16gg\JJ	.	.	.	.	.	.	.	.	.	.
=5	=5	=5	=5	=5	=5	=5	=5	=5	=5	=5	=5	=5	=5
8D\L	.	8dd\L	8ff\L	8D/	Con-	0r	.	1r	.	00r	.	1ryy	1ryy
8E\	X 6/	16cc#X\L	16ee\L	8E\	-gre-	.	.	.	.	.	.	.	.
.	.	16dd\JJ	16ff\JJ	.	.	.	.	.	.	.	.	.	.
!	!	!LO:TX:a:t=P:problem=mixed beam	!	!	!	!	!	!	!	!	!	!	!
8F\	X 6	8a/L	8dd\L	8F\	-ga-	.	.	.	.	.	.	.	.
8G\J	.	8gg\J	8bb-\J	8G\	-ti-	.	.	.	.	.	.	.	.
8A\L	X #	8cc#X\	8aa\L	8A\L	-o-	.	.	.	.	.	.	.	.
8B-\	.	4dd\	16gg\L	8B-\	.	.	.	.	.	.	.	.	.
.	.	.	16ff\JJ	.	.	.	.	.	.	.	.	.	.
8G\	6 5	.	4eet\	8G\	.	.	.	.	.	.	.	.	.
8A\J	X #	8cc#X\	.	8A\J	.	.	.	.	.	.	.	.	.
=6	=6	=6	=6	=6	=6	=6	=6	=6-	=6	=6	=6	=6	=6
!	!	!	!LO:TX:b:t=A	!	!	!	!	!LO:TX:a:i:t=Solo	!	!	!	!	!
4D/	.	4dd\	4dd\	4D/	-ne	.	.	4.d\	Ma-	.	.	1ryy	1ryy
8r	.	4r	4r	4r	.	.	.	.	.	.	.	.	.
8D/	.	.	.	.	.	.	.	8d\	-gna	.	.	.	.
16A\LL	X #	2r	2r	2r	.	.	.	4c#X/	o-	.	.	.	.
16G\	.	.	.	.	.	.	.	.	.	.	.	.	.
16A\	.	.	.	.	.	.	.	.	.	.	.	.	.
16B-\JJ	.	.	.	.	.	.	.	.	.	.	.	.	.
16A\LL	.	.	.	.	.	.	.	8d\	-pe-	.	.	.	.
16B-\	.	.	.	.	.	.	.	.	.	.	.	.	.
16A\	.	.	.	.	.	.	.	8e\	-ra	.	.	.	.
16G\JJ	.	.	.	.	.	.	.	.	.	.	.	.	.
=7	=7	=7-	=7	=7	=7	=7-	=7	=7	=7	=7	=7	=7	=7
8F\L	X 6	00r	00r	00r	.	2r	.	8f\	Do-	.	.	1ryy	1ryy
8D\J	.	.	.	.	.	.	.	16f\	-mi-	.	.	.	.
.	.	.	.	.	.	.	.	16e\	-ni	.	.	.	.
8r	.	.	.	.	.	.	.	8d\	ex-	.	.	.	.
8D/	.	.	.	.	.	.	.	8d\	-qui-	.	.	.	.
!LO:LB:g=original	!	!	!	!	!	!	!	!	!	!	!	!	!
4C#X/	.	.	.	.	.	4r	.	(>16a\LL	-ſi-	.	.	.	.
.	.	.	.	.	.	.	.	16g\JJ)	.	.	.	.	.
.	.	.	.	.	.	.	.	16a\	-ta	.	.	.	.
.	.	.	.	.	.	.	.	16b-\	in	.	.	.	.
8AA/L	.	.	.	.	.	8r	.	(>16a\LL	o-	.	.	.	.
.	.	.	.	.	.	.	.	16b-\JJ)	.	.	.	.	.
8C#X/J	X 6	.	.	.	.	8A/	Con-	(>16a\LL	-mnes	.	.	.	.
.	.	.	.	.	.	.	.	16g\JJ)	.	.	.	.	.
=8	=8	=8	=8	=8	=8	=8	=8	=8	=8	=8	=8	=8	=8
4D/	.	.	.	.	.	(>16d\LL	-fes-	(>16f\LL	Vo-	.	.	1ryy	1ryy
.	.	.	.	.	.	16c\JJ)	.	16e\JJ)	.	.	.	.	.
.	.	.	.	.	.	16d\	-si-	(>16f\LL	-lun-	.	.	.	.
.	.	.	.	.	.	16e\	-o	16g\JJ)	.	.	.	.	.
8r	.	.	.	.	.	(>16d\LL	et	8f\	-ta-	.	.	.	.
.	.	.	.	.	.	16e\JJ)	.	.	.	.	.	.	.
8D/	.	.	.	.	.	(>16d\LL	ma-	(>16e\LL	-tes	.	.	.	.
.	.	.	.	.	.	16c\JJ)	.	16f\JJ)	.	.	.	.	.
!	!	!	!	!	!	!	!	!LO:LB:g=original	!	!	!	!	!
16G\LL	X 6	.	.	.	.	(>16B-\LL	-gni-	8d\	e-	.	.	.	.
16F\	.	.	.	.	.	16A\JJ)	.	.	.	.	.	.	.
16G\	.	.	.	.	.	(>16B-\LL	-fi-	8d\	-jus	.	.	.	.
16A\JJ	.	.	.	.	.	16c\JJ)	.	.	.	.	.	.	.
16G\LL	.	.	.	.	.	8B-\	-cen-	4r	.	.	.	.	.
16A\	.	.	.	.	.	.	.	.	.	.	.	.	.
16G\	.	.	.	.	.	16A/	-ti-	.	.	.	.	.	.
16F\JJ	.	.	.	.	.	16B-\	-a	.	.	.	.	.	.
=9	=9	=9	=9	=9	=9	=9	=9	=9-	=9	=9	=9	=9	=9
8E\L	X 6	.	.	.	.	8c\	o-	0r	.	0r	.	1ryy	1ryy
8F\J	.	.	.	.	.	(>16B-\LL	-pus	.	.	.	.	.	.
.	.	.	.	.	.	16A\JJ)	.	.	.	.	.	.	.
8C/L	.	.	.	.	.	4GT/	e-	.	.	.	.	.	.
.	X 4	.	.	.	.	.	.	.	.	.	.	.	.
8CC/J	X 3	.	.	.	.	.	.	.	.	.	.	.	.
!	!	!	!	!	!	!LO:TX:a:t=P:global:problem=w źródle kreski oddechowe zapisywane w dolnej części pięciolinii	!	!	!	!	!	!	!
4FF/	.	.	.	.	.	8F,/	-jus	.	.	.	.	.	.
.	.	.	.	.	.	16A/	et	.	.	.	.	.	.
.	.	.	.	.	.	16Bn\	ju-	.	.	.	.	.	.
!LO:TX:a:t=P:problem=mixed beam	!	!	!	!	!	!	!	!	!	!	!	!	!
8A\L	X #	.	.	.	.	8c#X\	-sti-	.	.	.	.	.	.
8AA/J	.	.	.	.	.	16d\	-ti-	.	.	.	.	.	.
.	.	.	.	.	.	16e\	-a	.	.	.	.	.	.
!	!	!	!	!	!	!LO:LB:g=original	!	!	!	!	!	!	!
=10	=10	=10	=10	=10	=10	=10	=10	=10	=10	=10	=10	=10	=10
8D\L	.	.	.	.	.	8f\	e-	.	.	.	.	1ryy	1ryy
8E\	.	.	.	.	.	8e,\	-jus	.	.	.	.	.	.
8F\	X 6	.	.	.	.	8d\	ma-	.	.	.	.	.	.
8G\J	X 6	.	.	.	.	16e\	-net	.	.	.	.	.	.
.	X 5	.	.	.	.	16d\	in	.	.	.	.	.	.
8A\L	X #	.	.	.	.	8c#X\	ſae-	.	.	.	.	.	.
.	X 5	.	.	.	.	.	.	.	.	.	.	.	.
8G\J	X 6	.	.	.	.	16d\	-cu-	.	.	.	.	.	.
.	.	.	.	.	.	16e\	-lum	.	.	.	.	.	.
!LO:TX:a:t=P:problem=mixed beam	!	!	!	!	!	!	!	!	!	!	!	!	!
8A\L	.	.	.	.	.	8.e\	ſae-	.	.	.	.	.	.
.	X 4	.	.	.	.	.	.	.	.	.	.	.	.
8AA/J	X 3	.	.	.	.	.	.	.	.	.	.	.	.
.	.	.	.	.	.	16d\	-cu-	.	.	.	.	.	.
!	!	!LO:LB:g=original	!LO:LB:g=original	!	!	!	!	!	!	!	!	!	!
=11	=11	=11	=11	=11	=11	=11	=11	=11-	=11	=11-	=11	=11	=11
!LO:TX:b:t=Tutti	!	!	!	!	!	!	!	!	!	!	!	!	!
!LO:TX:a:t=P:problem=mixed beam	!	!	!	!LO:TX:a:i:t=Tutti	!	!	!	!	!	!LO:TX:a:i:t=Tutti	!	!	!
8D/L	X n	8r	8r	8r	.	8d,\	-li	8r	.	8r	.	1ryy	1ryy
!	!	!LO:TX:a:i:t=Tutti	!LO:TX:a:i:t=Tutti	!	!	!	!	!	!	!	!	!	!
8d\	.	8dd\	8ff\	8d\	Me-	8d\	Me-	8f\	Me-	8a\	Me-	.	.
8d\	.	8dd\L	8ff\L	8d\	-mo-	8d\	-mo-	8f\	-mo-	8a\	-mo-	.	.
8d\J	.	16dd\L	16ff\L	16d\	-ri-	16d\	-ri-	16f\	-ri-	16a\	-ri-	.	.
!	!	!	!	!	!	!	!	!	!	!LO:TX:a:t=P:global:problem=w źródle kreski oddechowe zapisywane w dolnej części pięciolinii	!	!	!
.	.	16dd\JJ	16ff\JJ	16d\	-am	16d\	-am	16g\	-am	16a,\	-am,	.	.
8c#X\L	X 6	8ee\L	8aa\L	8c#X\	fe-	8A/	fe-	8a\	fe-	8ee\	fe-	.	.
!LO:SIC:o=8B-\	!	!	!	!	!	!	!	!	!	!	!	!	!
8Bn	X 6	8dd\	8gg\J	8Bn\	-cit	8Bn\	-cit	8g\	-cit	8dd\	-cit	.	.
8c#X\	X 6	8ee\	16aa\LL	8c#X\	Mi-	8A/	mi-	8a\	mi-	8ee\	mi-	.	.
.	.	.	16ee\	.	.	.	.	.	.	.	.	.	.
8A\J	.	8cc#X\J	16cc#X\	8A\	-ra-	8c#X\	-ra-	8a\	-ra-	8cc#X\	-ra-	.	.
.	.	.	16aa\JJ	.	.	.	.	.	.	.	.	.	.
!	!	!	!	!LO:LB:g=original	!	!	!	!	!	!	!	!	!
=12	=12	=12	=12	=12	=12	=12	=12	=12	=12	=12	=12	=12	=12
8Bn\L	X 6	8bn\L	8gg\L	8Bn\	-bi-	8d\	-bi-	8g\	-bi-	8bn\	-bi-	1ryy	1ryy
8A\	X 6	8cc#X\	8ff\	8A\	-li-	8A/	-li-	8f\	-li-	8cc#X\	-li-	.	.
!	!	!	!	!	!	!	!	!LO:TX:a:t=P:global:problem=w źródle kreski oddechowe zapisywane w dolnej części pięciolinii	!	!	!	!	!
8B\	X 6	8dd\	8gg\	8Bn\	-um	8G/	-um	8g,\	-um	8dd\	-um	.	.
8c#X\J	X 6	8a\J	8ee\J	8c#X\	ſu-	8e\	ſu-	8e\	ſu-	8ee\	ſu-	.	.
!LO:TX:a:t=P:problem=mixed beam	!	!	!	!	!	!	!	!	!	!	!	!	!
!	!	!	!	!	!	!LO:LB:g=original	!	!	!	!	!	!	!
8d\L	.	16dd\LL	16ff\LL	8d\	-o-	8d\	-o-	8f\	-o-	8a\	-o-	.	.
.	.	16cc#X\	16ee\	.	.	.	.	.	.	.	.	.	.
8D/J	X n	16dd\	16ff\	8d\	-rum	8d\	-rum	8f\	-rum	8a\	-rum,	.	.
.	.	16ee\JJ	16gg\JJ	.	.	.	.	.	.	.	.	.	.
8r	.	16dd\LL	16ff\LL	8r	.	8r	.	8r	.	8r	.	.	.
.	.	16ff\	16aa\	.	.	.	.	.	.	.	.	.	.
8d\	X n	16ee\	16gg\	8d\	mi-	8d\	Mi-	8a\	Mi-	8ff\	mi-	.	.
.	.	16ff\JJ	16aa\JJ	.	.	.	.	.	.	.	.	.	.
=13	=13	=13	=13	=13	=13	=13	=13	=13	=13	=13	=13	=13	=13
8G\L	X 7_	8ff\L	8.bb-\L	8.G\	-ſe-	8.d\	-se-	8.b-\	-ſe-	8.ff\	-ſe-	1ryy	1ryy
8G\J	.	8ff\	.	.	.	.	.	.	.	.	.	.	.
.	.	.	16bb-\K	16G\	-ri-	16d\	-ri-	16b-\	-ri-	16ff\	-ri-	.	.
8c\L	X -	8gg\	8bb-\	8c,\	-cors	8B-\	-cors	8g\	-cors	8ee\	-cors,	.	.
8c\J	X 7	8gg\J	8bb-\J	8c\	et	8B-\	et	8g\	et	8ee\	et	.	.
8F\L	.	8ff\L	8aa\L	8F\	mi-	8c\	mi-	8a\	mi-	8ff\	mi-	.	.
!	!	!	!	!	!	!	!	!LO:LB:g=original	!	!	!	!	!
8A\	X 6	8ff\J	8aa\J	8A\	-ſe-	8c\	-ſe-	8a\	-se-	8ff\	-se-	.	.
!	!	!	!	!	!	!	!	!	!	!LO:LB:g=original	!	!	!
8B-\	X 3	8dd\L	8ff\L	8B-\	-ra-	8B-\	-ra-	8f\	-ra-	8dd\	-ra-	.	.
8G\J	X 6	16ee\L	16gg\L	8G\	-tor	8B-\	-tor	(>16g\LL	-tor	(>16ee\LL	-tor,	.	.
.	X 5	16dd\JJ	16ff\JJ	.	.	.	.	16f\JJ)	.	16dd\JJ)	.	.	.
!LO:LB:g=original	!	!	!	!	!	!	!	!	!	!	!	!	!
=14	=14	=14	=14	=14	=14	=14	=14	=14	=14	=14	=14	=14	=14
8A\L	X #	16cc#X\LL	16ee\LL	8A\	Do-	8A/	Do-	8e\	Do-	8cc#X\	Do-	1ryy	1ryy
.	.	16cc#\	16ee\	.	.	.	.	.	.	.	.	.	.
8Bn\	.	16bn\	16dd\	16A\	-mi-	16A/	-mi-	16e\	-mi-	16bn\	-mi-	.	.
.	.	16a\JJ	16cc#X\JJ	16Bn\	-nus	16A,/	-nus	16e\	-n(us)	16a\	-nus,	.	.
8c#X\	.	8ee\L	8ee\L	8c#X\	es-	8A/	es-	8e\	es-	8ee\	es-	.	.
8A\J	.	8ee\J	8aa\J	8A\	-cam	8c#X\	-cam	8a\	-cam	8ee\	-cam	.	.
8d\L	.	8ff\L	8aa\L	(>8d\L	de-	(>8d\L	de-	4a\	de-	(>8ff\L	de-	.	.
8c#X\	.	8ee\	8aa\	8c#X\J)	.	8e\J)	.	.	.	8ee\J)	.	.	.
8d\	.	8ff\	8aa\	8d\	-dit	8d\	-dit	8a\	-dit	8ff,\	-dit,	.	.
*	*	*	*	*custos:G#	*	*	*	*	*	*	*	*	*
8A\J	X #	8ee\J	8aa\J	8A\	ti-	8c#X\	ti-	8a\	ti-	8ee\	ti-	.	.
!	!	!	!	!LO:LB:g=original	!	!	!	!	!	!	!	!	!
=15	=15	=15	=15	=15	=15	=15	=15	=15	=15	=15	=15	=15	=15
8.G#X\L	6 5	8.dd\L	8ee\L	8.G#X\	-men-	8.Bn\	-men-	8.e\	-men-	8.dd\	-men-	1ryy	1ryy
.	.	.	16ff\L	.	.	.	.	.	.	.	.	.	.
16G#\Jk	.	16ee\Jk	16ee\JJ	16G#\	-ti-	16B\	-ti-	16e\	-ti-	16ee\	-ti-	.	.
!LO:TX:a:t=P:problem=mixed beam	!	!	!	!	!	!	!	!	!	!	!	!	!
!	!	!LO:LB:g=original	!	!	!	!	!	!	!	!	!	!	!
8A\L	X #	8dd\L	8ee\L	4A\	-bus	4A/	-b(us)	4e\	-b(us)	4cc#X\	-bus	.	.
8AA/J	.	8cc#X\J	8aa\J	.	.	.	.	.	.	.	.	.	.
!	!	!	!LO:LB:g=original	!	!	!	!	!	!	!	!	!	!
8D\L	.	4dd\	4ff\	4D/	se	4A/	se	4d\	se	4dd,\	ſe,	.	.
!LO:TX:b:t=solo	!	!	!	!	!	!	!	!	!	!	!	!	!
8E\	.	.	.	.	.	.	.	.	.	.	.	.	.
!	!	!	!	!	!	!	!	!	!	!LO:TX:a:i:t=Solo.	!	!	!
8F\	X 6	4r	4r	4r	.	4r	.	4r	.	8a\	Me-	.	.
8C#X\J	X 6	.	.	.	.	.	.	.	.	8a\	-mor	.	.
!	!	!	!	!	!	!LO:LB:g=original	!	!	!	!	!	!	!
=16	=16	=16	=16	=16	=16	=16	=16	=16-	=16	=16	=16	=16	=16
!	!	!	!LO:TX:b:t=A	!	!	!	!	!	!	!	!	!	!
4D\	X n	00r	00r	00r	.	0r	.	0r	.	(>16dd\LL	e-	1ryy	1ryy
.	.	.	.	.	.	.	.	.	.	16cc\JJ)	.	.	.
.	.	.	.	.	.	.	.	.	.	16dd\	-rit	.	.
.	.	.	.	.	.	.	.	.	.	16ee-X\	in	.	.
8r	.	.	.	.	.	.	.	.	.	(>16dd\LL	ſae-	.	.
.	.	.	.	.	.	.	.	.	.	16ee-X\JJ)	.	.	.
8D\	.	.	.	.	.	.	.	.	.	16dd\	-cu-	.	.
.	.	.	.	.	.	.	.	.	.	16cc\	-lum,	.	.
!	!	!	!	!	!	!	!	!	!	!LO:LB:g=original	!	!	!
16G\LL	X -	.	.	.	.	.	.	.	.	8b-\	te-	.	.
16F\	.	.	.	.	.	.	.	.	.	.	.	.	.
16G\	.	.	.	.	.	.	.	.	.	8b-\	-sta-	.	.
16A\JJ	.	.	.	.	.	.	.	.	.	.	.	.	.
16G\LL	.	.	.	.	.	.	.	.	.	(>16b-\LL	-men-	.	.
16A\	.	.	.	.	.	.	.	.	.	16cc\JJ)	.	.	.
16G\	.	.	.	.	.	.	.	.	.	(>16b-\LL	-ti,	.	.
16F\JJ	.	.	.	.	.	.	.	.	.	16a\JJ)	.	.	.
=17	=17	=17	=17	=17	=17	=17	=17	=17	=17	=17	=17	=17	=17
8E\L	X 6	.	.	.	.	.	.	.	.	4g/	ſu-	1ryy	1ryy
8D\	.	.	.	.	.	.	.	.	.	.	.	.	.
8E\	.	.	.	.	.	.	.	.	.	8g,/	-i,	.	.
8C\J	.	.	.	.	.	.	.	.	.	8cc\	Vir-	.	.
8F\L	.	.	.	.	.	.	.	.	.	8a\	-tu-	.	.
8E-X\J	X 2	.	.	.	.	.	.	.	.	8f/	-tem	.	.
8D/L	X 6	.	.	.	.	.	.	.	.	8.b-\	o-	.	.
8AA/J	X 6	.	.	.	.	.	.	.	.	.	.	.	.
.	.	.	.	.	.	.	.	.	.	16cc\	-pe-	.	.
=18	=18	=18	=18	=18	=18	=18	=18	=18	=18	=18	=18	=18	=18
8BB-/L	.	.	.	.	.	1r	.	1r	.	8dd\	-rum	1ryy	1ryy
8C/	X -	.	.	.	.	.	.	.	.	8ee-X\	ſu-	.	.
8D/	.	.	.	.	.	.	.	.	.	8ff\	-o-	.	.
8E-X/J	.	.	.	.	.	.	.	.	.	16ee-X\	-rum	.	.
.	.	.	.	.	.	.	.	.	.	16dd\	an-	.	.
!LO:TX:a:t=P:problem=mixed beam	!	!	!	!	!	!	!	!	!	!	!	!	!
8F\L	.	.	.	.	.	.	.	.	.	8cc\	-nun-	.	.
8BB-/J	.	.	.	.	.	.	.	.	.	(>16dd\LL	-ti-	.	.
.	.	.	.	.	.	.	.	.	.	16b-\JJ)	.	.	.
8r	.	.	.	.	.	.	.	.	.	8a\	-a-	.	.
8G\	X -	.	.	.	.	.	.	.	.	8b-,\	-bit,	.	.
=19	=19	=19	=19	=19	=19	=19-	=19	=19-	=19	=19	=19	=19	=19
8C/L	X -	.	.	.	.	2r	.	2r	.	8ee-X\	po-	1ryy	1ryy
16D/L	.	.	.	.	.	.	.	.	.	16dd\	-pu-	.	.
*	*	*	*	*	*	*	*	*	*	*custos:cc	*	*	*
16E-X/JJ	.	.	.	.	.	.	.	.	.	16cc\	-lo	.	.
!	!	!	!	!	!	!	!	!	!	!LO:LB:g=original	!	!	!
!LO:TX:a:t=P:problem=mixed beam	!	!	!	!	!	!	!	!	!	!LO:TX:a:t=P:global:problem=wszystkie mordenty z górnym prefiksem	!	!	!
8F\L	.	.	.	.	.	.	.	.	.	4ccM\	ſu-	.	.
.	X 4	.	.	.	.	.	.	.	.	.	.	.	.
8FF/J	X 3	.	.	.	.	.	.	.	.	.	.	.	.
!	!	!	!	!	!	!LO:TX:a:i:t=Solo	!	!LO:TX:a:i:t=Solo	!	!	!	!	!
4BB-/	.	.	.	.	.	4.B-\	Ut	4.d\	Ut	4b-\	-o	.	.
8r	.	.	.	.	.	.	.	.	.	4r	.	.	.
8BB-/	.	.	.	.	.	8B-\	det	8d\	det	.	.	.	.
=20	=20	=20	=20	=20	=20	=20	=20	=20	=20	=20	=20	=20	=20
16F\LL	.	0r	0r	00r	.	8A/	il-	8c/	il-	00r	.	1ryy	1ryy
16E-X\	.	.	.	.	.	.	.	.	.	.	.	.	.
16F\	.	.	.	.	.	8F/	-lis	8c/	-lis	.	.	.	.
16G\JJ	.	.	.	.	.	.	.	.	.	.	.	.	.
!LO:LB:g=original	!	!	!	!	!	!	!	!	!	!	!	!	!
16F\LL	.	.	.	.	.	4r	.	4r	.	.	.	.	.
16G\	.	.	.	.	.	.	.	.	.	.	.	.	.
16F\	.	.	.	.	.	.	.	.	.	.	.	.	.
16E-X\JJ	.	.	.	.	.	.	.	.	.	.	.	.	.
8D/L	X 6	.	.	.	.	8r	.	8r	.	.	.	.	.
8BB-/J	.	.	.	.	.	8B-\	hae-	8B-/	hae-	.	.	.	.
8r	.	.	.	.	.	8B-\	-re-	8B-/	-re-	.	.	.	.
8GG/	.	.	.	.	.	8B-\	-di-	8B-/	-di-	.	.	.	.
!	!	!	!	!	!	!	!	!LO:LB:g=original	!	!	!	!	!
=21	=21	=21	=21	=21	=21	=21	=21	=21	=21	=21	=21	=21	=21
4FF/	.	.	.	.	.	16A/LL	-ta-	16f\LL	-ta-	.	.	1ryy	1ryy
.	.	.	.	.	.	16G/	.	16e-X\	.	.	.	.	.
.	.	.	.	.	.	16A/	.	16f\	.	.	.	.	.
.	.	.	.	.	.	16B-/JJ	.	16g\JJ	.	.	.	.	.
8r	.	.	.	.	.	8A/	-tem	16f\LL	.	.	.	.	.
.	.	.	.	.	.	.	.	16g\JJ	.	.	.	.	.
8FF/	.	.	.	.	.	8A,/	.	(>16f\LL	-tem	.	.	.	.
.	.	.	.	.	.	.	.	16e-X\JJ)	.	.	.	.	.
8BB-/L	.	.	.	.	.	8.B-\	gen-	8.d\	gen-	.	.	.	.
8C/	.	.	.	.	.	.	.	.	.	.	.	.	.
.	.	.	.	.	.	16A/	-ti-	16c/	-ti-	.	.	.	.
8D/	.	.	.	.	.	4B-\	-um	4B-/	-um	.	.	.	.
8BB-/J	X 6	.	.	.	.	.	.	.	.	.	.	.	.
=22	=22	=22	=22	=22	=22	=22	=22	=22	=22	=22	=22	=22	=22
4BB-/	.	1r	1r	.	.	8d\	o-	8f\	o-	.	.	1ryy	1ryy
.	.	.	.	.	.	16e-X\	-pe-	16g\	-pe-	.	.	.	.
.	.	.	.	.	.	16d\	-ra	16f\	-ra	.	.	.	.
!LO:TX:a:t=P:problem=mixed beam	!	!	!	!	!	!	!	!	!	!	!	!	!
8C/L	.	.	.	.	.	8c\	ma-	8e-X\	ma-	.	.	.	.
8F\J	X 7-	.	.	.	.	16d\	-nu-	16f\	-nu-	.	.	.	.
.	.	.	.	.	.	16c\	-um	16e-X\	-um	.	.	.	.
4BB-/	.	.	.	.	.	8B-\	e-	8d\	e-	.	.	.	.
.	.	.	.	.	.	8c\	-jus	8e-X\	-jus	.	.	.	.
!	!	!	!	!	!	!LO:LB:g=original	!	!	!	!	!	!	!
8r	.	.	.	.	.	8d\	Ve-	8f\	ve-	.	.	.	.
!	!	!LO:TX:a:i:t=Solo	!	!	!	!	!	!	!	!	!	!	!
8D/	X 6	.	.	.	.	16c\	-ri-	16e-X\	-ri-	.	.	.	.
.	.	.	.	.	.	16B-\	-tas	16d\	-tas	.	.	.	.
=23	=23	=23	=23-	=23	=23	=23	=23	=23	=23	=23	=23	=23	=23
8E-X\L	.	2r	2r	.	.	8e-X\	et	8g\	et	.	.	1ryy	1ryy
8En\J	6 5	.	.	.	.	8B-\	ju-	8c/	ju-	.	.	.	.
!LO:TX:a:t=P:problem=mixed beam	!	!	!	!	!	!	!	!	!	!	!	!	!
8F\L	.	.	.	.	.	8.B-\	-di-	8.c/	-di-	.	.	.	.
.	X 4	.	.	.	.	.	.	.	.	.	.	.	.
8FF/J	X 3	.	.	.	.	.	.	.	.	.	.	.	.
.	.	.	.	.	.	16A/	-ci-	16B-/	-ci-	.	.	.	.
!	!	!	!LO:TX:a:i:t=Solo&colon;	!	!	!	!	!LO:TX:b:i:t=V	!	!	!	!	!
4BB-/	.	8r	8r	.	.	4B-\	-um	4B-/	-um	.	.	.	.
!	!	!LO:TX:a:t=P:problem=mixed beam	!	!	!	!	!	!	!	!	!	!	!
.	.	8d/L	8b-/L	.	.	.	.	.	.	.	.	.	.
4B-\	.	8d/	8b-/	.	.	4r	.	4r	.	.	.	.	.
.	.	8dd\J	8b-/J	.	.	.	.	.	.	.	.	.	.
!	!	!	!	!	!	!	!	!LO:LB:g=original	!	!	!	!	!
=24	=24	=24	=24	=24	=24	=24	=24	=24	=24	=24	=24	=24	=24
!	!	!	!LO:TX:b:t=Bas	!	!	!	!	!	!	!	!	!	!
4A\	X 6	16a/LL	16ff\LL	8r	.	00r	.	00r	.	1r	.	1ryy	1ryy
.	.	16g/	16ee-X\	.	.	.	.	.	.	.	.	.	.
!	!	!	!	!LO:TX:a:i:t=Solo	!	!	!	!	!	!	!	!	!
.	.	16a/	16ff\	8F\	Fi-	.	.	.	.	.	.	.	.
.	.	16b-/JJ	16gg\JJ	.	.	.	.	.	.	.	.	.	.
4F\	.	16a/LL	16ff\LL	8F\	-de-	.	.	.	.	.	.	.	.
.	.	16b-/	16gg\	.	.	.	.	.	.	.	.	.	.
.	.	16a/	16ff\	16F\	-li-	.	.	.	.	.	.	.	.
.	.	16g/JJ	16ee-X\JJ	16F\	-a	.	.	.	.	.	.	.	.
!LO:TX:a:t=P:problem=mixed beam	!	!	!	!	!	!	!	!	!	!	!	!	!
8B-\L	.	4f/	4dd\	(>16B-\LL	om-	.	.	.	.	.	.	.	.
.	.	.	.	16A\JJ)	.	.	.	.	.	.	.	.	.
8BB-/	.	.	.	(>16B-\LL	-ni-	.	.	.	.	.	.	.	.
.	.	.	.	16c\JJ)	.	.	.	.	.	.	.	.	.
8BB-/	.	4r	4r	(>16B-\LL	-a	.	.	.	.	.	.	.	.
.	.	.	.	16c\JJ)	.	.	.	.	.	.	.	.	.
8BB-/J	.	.	.	(>16B-\LL	man-	.	.	.	.	.	.	.	.
.	.	.	.	16A\JJ)	.	.	.	.	.	.	.	.	.
=25	=25	=25	=25	=25	=25	=25	=25	=25	=25	=25-	=25	=25	=25
16E-X\LL	.	1r	2r	(>16G\LL	-da-	.	.	.	.	8r	.	1ryy	1ryy
16D\	.	.	.	16F\JJ)	.	.	.	.	.	.	.	.	.
16E-\	.	.	.	(>16G\LL	-ta	.	.	.	.	8b-\	Re-	.	.
16F\JJ	.	.	.	16A\JJ)	.	.	.	.	.	.	.	.	.
16E-X\LL	.	.	.	8B-\	e-	.	.	.	.	8b-\	-dem-	.	.
16F\	.	.	.	.	.	.	.	.	.	.	.	.	.
16E-\	.	.	.	8G\	-jus	.	.	.	.	8b-\	-pti-	.	.
16D\JJ	.	.	.	.	.	.	.	.	.	.	.	.	.
4C/	X -	.	8r	(>16c\LL	Con-	.	.	.	.	(>16ee-X\LL	-o-	.	.
.	.	.	.	16B-\JJ)	.	.	.	.	.	16dd\JJ)	.	.	.
.	.	.	8cc\L	(>16c\LL	-fir-	.	.	.	.	(>16ee-X\LL	-nem,	.	.
.	.	.	.	16d\JJ)	.	.	.	.	.	16ff\JJ)	.	.	.
8r	.	.	8cc\	16c\LL	-ma-	.	.	.	.	(>16ee-X\LL	mi-	.	.
.	.	.	.	16d\JJ	.	.	.	.	.	16ff\JJ)	.	.	.
8c\	.	.	8cc\J	16c\	-ta	.	.	.	.	(>16ee-X\LL	-ſit,	.	.
.	.	.	.	16B-\	in	.	.	.	.	16dd\JJ)	.	.	.
!	!	!	!	!LO:LB:g=original	!	!	!	!	!	!	!	!	!
=26	=26	=26	=26	=26	=26	=26	=26	=26	=26	=26	=26	=26	=26
4A\	X 6	8r	16ff\LL	8A\	ſae-	.	.	.	.	8cc\	Do-	1ryy	1ryy
.	.	.	16ee-X\	.	.	.	.	.	.	.	.	.	.
.	.	8f/L	16ff\	16A\	-cu-	.	.	.	.	16cc\	-mi-	.	.
.	.	.	16gg\JJ	16B-\	-lum	.	.	.	.	16dd\	-nus,	.	.
8r	.	8f/	16ff\LL	8c\	ſae-	.	.	.	.	8ee-X\	po-	.	.
.	.	.	16gg\	.	.	.	.	.	.	.	.	.	.
8F\	.	8f/J	16ff\	16B-\	-cu-	.	.	.	.	16dd\	-pu-	.	.
.	.	.	16ee-X\JJ	16A\	-li	.	.	.	.	16cc\	-lo	.	.
4D/	X 6	16b-\LL	16dd\LL	4B-\	fa-	.	.	.	.	8dd\	ſu-	.	.
.	.	16a\	16cc\	.	.	.	.	.	.	.	.	.	.
.	.	16b-\	16dd\	.	.	.	.	.	.	8b-\	-o,	.	.
.	.	16cc\JJ	16ee-X\JJ	.	.	.	.	.	.	.	.	.	.
8r	.	16b-\LL	16dd\LL	8B-\	-cta	.	.	.	.	8r	.	.	.
.	.	16dd\	16ff\	.	.	.	.	.	.	.	.	.	.
8BB-/	.	16cc\	16ee-X\	8B-\	in	.	.	.	.	8dd\	man-	.	.
.	.	16b-\JJ	16dd\JJ	.	.	.	.	.	.	.	.	.	.
=27	=27	=27	=27	=27	=27	=27	=27	=27	=27	=27	=27	=27	=27
!LO:TX:a:t=P:problem=mixed beam	!	!	!	!	!	!	!	!	!	!	!	!	!
8FF/L	.	8cc\L	8cc\L	(>16A\LL	ve-	.	.	.	.	(>16cc\LL	-da-	1ryy	1ryy
.	.	.	.	16G\JJ)	.	.	.	.	.	16b-\JJ)	.	.	.
8F\	.	8f\J	8a\J	(>16A\LL	-ri-	.	.	.	.	(>16cc\LL	-vit	.	.
.	.	.	.	16B-\JJ)	.	.	.	.	.	16dd\JJ)	.	.	.
!	!	!	!	!	!	!	!	!	!	!LO:LB:g=original	!	!	!
8F\	.	4r	4r	16c\LL	-ta-	.	.	.	.	(>16ee-X\LL	in	.	.
.	.	.	.	16B-\JJ	.	.	.	.	.	16dd\JJ)	.	.	.
8F\J	.	.	.	16c\	-te	.	.	.	.	(>16ee-X\LL	ae-	.	.
.	.	.	.	16A\	et	.	.	.	.	16cc\JJ)	.	.	.
!	!	!	!	!LO:SIC:o=8B-\	!	!	!	!	!	!	!	!	!
!	!	!	!LO:LB:g=original	!	!	!	!	!	!	!	!	!	!
16B-\LL	.	2r	2r	ae-	e-	.	.	.	.	8dd\	-ter-	.	.
16A\	.	.	.	.	.	.	.	.	.	.	.	.	.
16B-\	.	.	.	8A\	-qui-	.	.	.	.	8cc\	-num	.	.
16c\JJ	.	.	.	.	.	.	.	.	.	.	.	.	.
!LO:LB:g=original	!	!	!	!	!	!	!	!	!	!	!	!	!
16B-\LL	.	.	.	16B-\LL	-ta-	.	.	.	.	8r	.	.	.
16c\	.	.	.	16c\	.	.	.	.	.	.	.	.	.
16B-\	.	.	.	16B-\	.	.	.	.	.	16dd\	te-	.	.
16A\JJ	.	.	.	16A\JJ	.	.	.	.	.	16cc\	-sta-	.	.
!	!	!LO:LB:g=original	!	!	!	!	!	!	!	!	!	!	!
=28	=28	=28	=28	=28	=28	=28-	=28	=28	=28	=28	=28	=28	=28
8G\L	X 6/	00r	00r	4G\	-te	2r	.	1r	.	8b-\	-men-	1ryy	1ryy
8F\J	.	.	.	.	.	.	.	.	.	(>16a\LL	-tum	.	.
.	.	.	.	.	.	.	.	.	.	16g\JJ)	.	.	.
!LO:TX:a:t=P:problem=mixed beam	!	!	!	!	!	!	!	!	!	!	!	!	!
8c\L	.	.	.	4r	.	.	.	.	.	4gM/	ſu-	.	.
8C/J	.	.	.	.	.	.	.	.	.	.	.	.	.
4F\	.	.	.	2r	.	4r	.	.	.	4f,/	-um,	.	.
*clefC4	*	*	*	*	*	*	*	*	*	*	*	*	*
!LO:TX:a:t=a3	!	!	!	!	!	!LO:TX:a:t=a3	!	!	!	!LO:TX:a:t=à 3.	!	!	!
8F/L	.	.	.	.	.	8F/	ſan-	.	.	8a\	ſan-	.	.
8F/J	.	.	.	.	.	8F/	-ctu(m)	.	.	8a\	-ctum	.	.
=29	=29	=29	=29	=29	=29	=29	=29	=29-	=29	=29	=29	=29	=29
*	*	*	*	*	*	*	*	*	*	*	*ij	*	*
!	!	!	!	!	!	!	!	!LO:TX:a:t=a3	!	!	!	!	!
16c\LL	X n	.	.	00r	.	(>16c\LL	et	4r	.	4.g/	ſan-	1ryy	1ryy
16B-\	.	.	.	.	.	16B-\JJ)	.	.	.	.	.	.	.
16c\	.	.	.	.	.	(>16c\LL	ter-	.	.	.	.	.	.
16d\JJ	.	.	.	.	.	16d\JJ)	.	.	.	.	.	.	.
16c\LL	.	.	.	.	.	(>16c\LL	-ri-	8c/	ſan-	.	.	.	.
16d\	.	.	.	.	.	16d\JJ)	.	.	.	.	.	.	.
16c\	.	.	.	.	.	16c\	-bi-	8c/	-ctum	8g/	-ctum	.	.
16B-\JJ	.	.	.	.	.	16B-\	-le	.	.	.	.	.	.
*	*	*	*	*	*	*	*	*	*	*	*Xij	*	*
8A/L	X 6	.	.	.	.	8A/	No-	(>16f\LL	et	(>16a\LL	et	.	.
.	.	.	.	.	.	.	.	16e\JJ)	.	16g\JJ)	.	.	.
8F/J	.	.	.	.	.	8A/	-men	(>16f\LL	ter-	(>16a\LL	ter-	.	.
.	.	.	.	.	.	.	.	16g\JJ)	.	16b-\JJ)	.	.	.
8r	.	.	.	.	.	8F/	ſan-	(>16f\LL	-ri-	(>16a\LL	-ri-	.	.
.	.	.	.	.	.	.	.	16g\JJ)	.	16b-\JJ)	.	.	.
8F/	.	.	.	.	.	8F/	-ctu(m)	16f\	-bi-	16a\	-bi-	.	.
.	.	.	.	.	.	.	.	16e\	-le	16g\	-le,	.	.
=30	=30	=30	=30	=30	=30	=30	=30	=30	=30	=30	=30	=30	=30
4B-\	.	.	.	.	.	(>16B-\LL	et	8d\	No-	8f/	no-	1ryy	1ryy
.	.	.	.	.	.	16A\JJ)	.	.	.	.	.	.	.
.	.	.	.	.	.	(>16B-\LL	ter-	8d,\	-men	8f,/	-men	.	.
.	.	.	.	.	.	16c\JJ)	.	.	.	.	.	.	.
!	!	!	!	!	!	!	!	!	!	!LO:LB:g=original	!	!	!
!	!	!	!	!	!	!LO:LB:g=original	!	!	!	!	!	!	!
8r	.	.	.	.	.	(>16B-\LL	-ri-	8d\	ſan-	8f/	ſan-	.	.
.	.	.	.	.	.	16c\JJ)	.	.	.	.	.	.	.
16B-\LL	.	.	.	.	.	16B-\	-bi-	8d\	-ctum	8f/	-ctu(m)	.	.
16A\JJ	.	.	.	.	.	16A/	-le	.	.	.	.	.	.
4G/	X -	.	.	.	.	8G/	No-	(>16g\LL	et	(>16b-\LL	et	.	.
.	.	.	.	.	.	.	.	16f\JJ)	.	16a\JJ)	.	.	.
.	.	.	.	.	.	8G,/	-men	(>16g\LL	ter-	(>16b-\LL	ter-	.	.
.	.	.	.	.	.	.	.	16a\JJ)	.	16cc\JJ)	.	.	.
8r	.	.	.	.	.	8G/	ſan-	(>16g\LL	-ri-	(>16b-\LL	-ri-	.	.
.	.	.	.	.	.	.	.	16a\JJ)	.	16cc\JJ)	.	.	.
8G/	.	.	.	.	.	8G/	-ctum	16g\	-bi-	16b-\	-bi-	.	.
.	.	.	.	.	.	.	.	16f\	-le	16a\	-le,	.	.
=31	=31	=31	=31	=31	=31	=31	=31	=31	=31	=31	=31	=31	=31
4c\	.	.	.	.	.	(>16c\LL	et	8e\	no-	8g/	no-	1ryy	1ryy
.	.	.	.	.	.	16B-\JJ)	.	.	.	.	.	.	.
.	.	.	.	.	.	(>16c\LL	ter-	8e,\	-men	8g,/	-men,	.	.
.	.	.	.	.	.	16d\JJ)	.	.	.	.	.	.	.
8r	.	.	.	.	.	(>16c\LL	-ri-	8e\	ſan-	8g/	ſan-	.	.
.	.	.	.	.	.	16d\JJ)	.	.	.	.	.	.	.
16c\LL	.	.	.	.	.	16c\	-bi-	8e\	-ctum	8g/	-ctum	.	.
16B-\JJ	.	.	.	.	.	16B-\	-le	.	.	.	.	.	.
!	!	!	!	!	!	!	!	!LO:LB:g=original	!	!	!	!	!
8A/	X 6	.	.	.	.	8A/	No-	8f\	No-	(>16cc\LL	No-	.	.
.	.	.	.	.	.	.	.	.	.	16dd\JJ)	.	.	.
4c\	X 3	.	.	.	.	8c\	-men	8g\	-men	8ee\	-men	.	.
.	4 2	.	.	.	.	(>8c\L	e-	4f\	e-	4dd\	e-	.	.
.	X 6	.	.	.	.	.	.	.	.	.	.	.	.
8Bn\	X 5	.	.	.	.	8Bn\J)	.	.	.	.	.	.	.
=32	=32	=32	=32	=32	=32	=32	=32	=32	=32	=32	=32	=32	=32
!	!	!	!LO:TX:a:i:t=Tutti&colon;	!	!	!	!	!	!	!	!	!	!
8c\L	.	0r	0r	.	.	8c,\	-ius	8e,\	-ius	8cc\	-ius.	1ryy	1ryy
8A\	.	.	.	.	.	8A/	i-	(>16e\LL	i-	8cc#X\	I-	.	.
.	.	.	.	.	.	.	.	16d\JJ)	.	.	.	.	.
8A\	.	.	.	.	.	8A/	-ni-	8c#X/	-ni-	8a\	-ni-	.	.
8G\J	4 2	.	.	.	.	16G/	-ci-	16d\	-ti-	16bn\	-ti-	.	.
.	.	.	.	.	.	16G/	-um	16e\	-um	16cc#X\	-um	.	.
8F/L	X 6	.	.	.	.	8F/	ſa-	8f\	ſa-	8dd\	ſa-	.	.
8E/	X 6/	.	.	.	.	8E/	-pi-	8g\	-pi-	8cc#X\	-pi-	.	.
8F/	X 6	.	.	.	.	8F/	-en-	8f\	-en-	8dd\	-en-	.	.
8D/J	.	.	.	.	.	16D/	-ti-	16g\	-ti-	16ee\	-ti-	.	.
!	!	!	!	!	!	!LO:LB:g=original	!	!	!	!	!	!	!
.	.	.	.	.	.	16D/	-ae	16f\	-ae	16dd\	-ae	.	.
!	!	!	!	!	!	!	!	!	!	!LO:LB:g=original	!	!	!
=33	=33	=33	=33	=33	=33	=33	=33	=33	=33	=33	=33	=33	=33
4A\	.	.	.	1r	.	4A/	ti-	4e\	ti-	4cc#X\	ti-	1ryy	1ryy
4G#X/	7n 5	.	.	.	.	4G#X/	-mor	4f\	-mor	4dd,\	-mor,	.	.
*	*reverse	*	*	*	*	*	*	*	*	*	*	*	*
2A/	4#	.	.	.	.	4.A/	Do-	4.et\	Do-	4.ddM\	Do-	.	.
.	.	.	.	.	.	8A/	-mi-	8e\	-mi-	8cc#X\	-mi-	.	.
=34	=34	=34	=34-	=34	=34	=34	=34	=34	=34	=34	=34	=34	=34
!	!	!LO:TX:a:i:t=Tutti	!	!LO:TX:a:i:t=Tutti	!	!	!	!	!	!	!	!	!
4D/	.	8r	8r	4r	.	4D,/	-ni	4d\	-ni	4dd,\	-ni	1ryy	1ryy
.	.	16dd\LL	16ff\LL	.	.	.	.	.	.	.	.	.	.
.	.	16ee\JJ	16gg\JJ	.	.	.	.	.	.	.	.	.	.
!LO:LB:g=original	!	!	!	!	!	!	!	!	!	!	!	!	!
*clefF4	*	*	*	*	*	*	*	*	*	*	*	*	*
!LO:TX:b:t=Tutti	!	!	!	!	!	!	!	!LO:TX:a:i:t=Tutti	!	!LO:TX:a:i:t=Tutti	!	!	!
8D/L	X n	8ff\L	8aa\L	8D/	In-	8A/	In-	8f\	In-	8dd\	In-	.	.
8D/J	.	8dd\J	8ff\J	8D/	-tel-	8A/	-tel-	8f\	-tel-	8dd\	-tel-	.	.
!	!	!	!	!LO:LB:g=original	!	!	!	!	!	!	!	!	!
!	!	!	!	!	!LO:SIC:o=-lec-	!	!	!	!	!	!	!	!
16A\LL	X #_	8cc#X\L	8ee\L	(>16A\LL	-le-	8A/	-le-	8e\	-le-	8cc#X\	-lec-	.	.
16G\	.	.	.	16G\JJ)	.	.	.	.	.	.	.	.	.
16A\	.	8a\J	8cc#X\J	(>16A\LL	-ctus	8c#X\	-ctus	8c#X/	-ct(us)	8a\	-tus,	.	.
16B-\JJ	.	.	.	16B-\JJ)	.	.	.	.	.	.	.	.	.
!	!	!	!	!	!	!	!	!LO:LB:g=original	!	!	!	!	!
16A\LL	.	8cc#X\L	8ee\L	(>16A\LL	bo-	8c#\	bo-	8e\	bo-	8cc#X\	bo-	.	.
16B-\	.	.	.	16B-\JJ)	.	.	.	.	.	.	.	.	.
16A\	X X	8dd\J	8ee\J	(16A\LL	-nus	8A/	-nus	8e\	-nus	8cc#,\	-nus,	.	.
16G\JJ	.	.	.	16G\JJ)	.	.	.	.	.	.	.	.	.
=35	=35	=35	=35	=35	=35	=35	=35	=35	=35	=35	=35	=35	=35
8F\L	X 6	8dd\L	8ff\L	8F\	o-	8d\	o-	8f\	o-	8dd\	o-	1ryy	1ryy
16E\L	X 6/	16ee\L	16gg\L	16E\	-mni-	16c#X\	-mni-	16g\	-mni-	16ee\	-mni-	.	.
16D\JJ	.	16ff\JJ	16aa\JJ	16D,/	-bus	16d\	-bus	16a\	-bus	16ff\	-bu(s)	.	.
8d\L	.	8ff\L	8aa\L	8d\	fa-	8A/	fa-	8f\	fa-	8ff\	fa-	.	.
8c\J	.	8ee\J	8aa\J	8c\	-ci-	8cn\	-ci-	8a\	-ci-	8ee\	-ci-	.	.
8B-\L	.	8dd\L	8ff\L	8B-\	-en-	8d\	-en-	8f\	-en-	8ff\	-en-	.	.
16A\L	X 6	16aa\L	16ff\L	16A\	-ti-	16d\	-ti-	16f\	-ti-	16cc\	-ti-	.	.
16B-\JJ	X 6	16gg\JJ	16gg\JJ	16B-\	-bus	16d\	-b(us)	16g\	-b(us)	16b-\	-bus,	.	.
!LO:TX:a:t=P:problem=mixed beam	!	!	!	!LO:TX:a:t=P:problem=mixed beam	!	!	!	!	!	!	!	!	!
8c\L	.	8aa\L	8ff\L	8c\L	e-	4c\	eum	(>8f\L	e-	(>8a\L	e-	.	.
8C/J	X 4	8gg\J	8ee\J	8C/J	-um	.	.	8e\J)	.	8g\J)	.	.	.
.	X 3	.	.	.	.	.	.	.	.	.	.	.	.
=36	=36	=36	=36	=36	=36	=36	=36	=36	=36	=36	=36	=36	=36
4F\	.	8ff\L	8ff\L	4F\	.	4c\	.	8f,\	-um	8f,/	-um,	1ryy	1ryy
*	*	*	*	*	*	*	*	*	*	*custos:cc	*	*	*
.	.	8cc\J	8aa\J	.	.	.	.	8a\	lau-	8cc\	lau-	.	.
8r	.	16cc\LL	16aa\LL	4r	.	8r	.	16a\LL	-da-	16cc\LL	-da-	.	.
.	.	16dd\	16bb-\	.	.	.	.	16b-\	.	16dd\	.	.	.
8F\	.	16cc\	16aa\	.	.	8c\	lau-	16a\	.	16cc\	.	.	.
.	.	16b-\JJ	16gg\JJ	.	.	.	.	16g\JJ	.	16b-\JJ	.	.	.
!LO:TX:a:t=P:problem=mixed beam	!	!	!	!	!	!	!	!	!	!	!	!	!
!	!	!	!	!	!	!LO:LB:g=original	!	!	!	!	!	!	!
8F\L	.	16a/LL	16ff\LL	8r	.	16c\LL	-da-	16f\LL	.	16a\LL	.	.	.
.	.	16b-/	16gg\	.	.	16d\	.	16g\	.	16b-\	.	.	.
8FF/J	.	16a/	16ff\	8F\	lau-	16c\	.	16f\	.	16a\	.	.	.
.	.	16g/JJ	16ee\JJ	.	.	16B-\JJ	.	16e\JJ	.	16g\JJ	.	.	.
8r	.	16f/LL	16ff\LL	8F\	-da-	16A/LL	.	16f\LL	.	16f\LL	.	.	.
.	.	16g/	16ee\	.	.	16B-/	.	16e\	.	16g\	.	.	.
8F\	.	16a/	16ff\	16F\	-ti-	16A/	.	16f\	.	16a\	.	.	.
.	.	16b-/JJ	16gg\JJ	16F\	-o	16G/JJ	.	16g\JJ	.	16b-\JJ	.	.	.
=37	=37	=37	=37	=37	=37	=37	=37	=37	=37	=37	=37	=37	=37
!LO:TX:a:t=P:problem=mixed beam	!	!	!	!	!	!	!	!	!	!	!	!	!
8C/L	.	8.cc\L	8.ee\L	8r	.	8.G/	-ti-	8.e\	.	8.cc\	.	1ryy	1ryy
!	!	!	!	!LO:TX:a:t=sic&colon;custos c	!	!	!	!	!	!	!	!	!
8c\J	.	.	.	8c\	lau-	.	.	.	.	.	.	.	.
.	.	16cc\Jk	16ee\Jk	.	.	16G/	-o	16e\	-ti-	16cc\	-ti-	.	.
*	*	*	*	*custos:c	*	*	*	*	*	*	*	*	*
!	!	!	!	!LO:PB:g=original	!	!	!	!	!	!	!	!	!
16c\LL	.	8cc\L	8ee\L	16c\LL	.	8G/	.	8e,\	-o	8cc,\	-o,	.	.
16d\	.	.	.	16d\	.	.	.	.	.	.	.	.	.
16c\	.	8ee\J	8gg\J	16c\	.	8r	.	8g\	lau-	8ee\	lau-	.	.
16B-\JJ	.	.	.	16B-\JJ	.	.	.	.	.	.	.	.	.
!	!	!LO:LB:g=original	!LO:LB:g=original	!	!	!	!	!LO:PB:g=original	!	!	!	!	!
16A\LL	X 6	8ff\L	8aa\L	16A\LL	.	8r	.	8a\	-da-	8ff\	-da-	.	.
16B-\	.	.	.	16B-\	.	.	.	.	.	.	.	.	.
16A\	.	16ff\L	16aa\L	16A\	.	8c\	lau-	16a\	-ti-	16f/	-ti-	.	.
16G\JJ	.	16ff\JJ	16aa\JJ	16G\JJ	.	.	.	16a\	-o	16f/	-o,	.	.
16F\LL	.	8ff\L	8aa\L	16F\LL	.	8c\	-da-	8r	.	8r	.	.	.
16G\	.	.	.	16G\	.	.	.	.	.	.	.	.	.
16A\	.	8ff\J	8aa\J	16A\	.	16c\	-ti-	8a\	lau-	8ff\	lau-	.	.
16B-\JJ	.	.	.	16B-\JJ	.	16d\	-o	.	.	.	.	.	.
=38	=38	=38	=38	=38	=38	=38	=38	=38	=38	=38	=38	=38	=38
!LO:TX:a:t=P:problem=mixed beam	!	!	!	!	!	!	!	!	!	!	!	!	!
8c\L	.	8ee\L	8gg\L	8c\	.	8c\	e-	8g\	-da-	8ee\	-da-	1ryy	1ryy
8C/J	.	16ee\L	16gg\L	16c\	-ti-	8c\	-jus	16g\	-ti-	16ee\	-ti-	.	.
.	.	16ee\JJ	16gg\JJ	16c,\	-o	.	.	16g,\	-o	16ee\	-o,	.	.
!LO:TX:a:t=P:problem=mixed beam	!	!	!	!	!	!	!	!	!	!	!	!	!
8AA/L	X #	8cc#X\L	8aa\L	8A\	e-	8e\	ma-	8a\	e-	8cc#X\	e-	.	.
8A\J	.	8cc#\J	8aa\J	8A\	-jus	8A/	-net	8a\	-jus	8cc#\	-jus	.	.
!	!	!LO:TX:a:t=P:problem=mixed beam	!LO:TX:a:t=P:problem=mixed beam	!	!	!	!	!	!	!	!	!	!
8d\L	.	16ff\LL	16aa\LL	4A\	ma-	4A/	in	4a\	ma-	4a\	ma-	.	.
.	.	16a/	16a/	.	.	.	.	.	.	.	.	.	.
8c#X\	.	16a/	16a/	.	.	.	.	.	.	.	.	.	.
.	.	16a/JJ	16a/JJ	.	.	.	.	.	.	.	.	.	.
!	!	!	!LO:TX:a:t=P:problem=mixed beam	!	!	!	!	!	!	!	!	!	!
8d\	.	16a/LL	16a/LL	8A,\	-net	8A/	ſae-	8a\	-net,	8a,\	-net,	.	.
.	.	16cc#X/	16aa\	.	.	.	.	.	.	.	.	.	.
8A\J	X #	16cc#/	16aa\	8A\	in	8A/	-cu-	8a\	in	8cc#X\	in	.	.
.	.	16cc#/JJ	16aa\JJ	.	.	.	.	.	.	.	.	.	.
!	!	!	!	!	!	!	!	!	!	!LO:PB:g=original	!	!	!
=39	=39	=39	=39	=39	=39	=39	=39	=39	=39	=39	=39	=39	=39
!LO:TX:a:t=P:problem=mixed beam	!	!	!	!	!	!	!	!	!	!	!	!	!
8B-\L	.	8dd\L	8ff\L	8B-\	ſae-	8d\	-lum	8f\	ſae-	8dd\	ſae-	1ryy	1ryy
8G\	X 6	16ee\L	16gg\L	16G\	-cu-	16c\	.	16g\	-cu-	16ee\	-cu-	.	.
.	X 5	16dd\JJ	16ff\JJ	16G\	-lum	16B-\	.	16f\	-lum	16dd\	-lum,	.	.
8A\	.	8dd\L	8ee\L	8A\	ſae-	8.A/	ſae-	8.e\	ſae-	8.cc#Xm\	ſae-	.	.
8AA/J	X #	8cc#X\J	8aa\J	8AA/	-cu-	.	.	.	.	.	.	.	.
.	.	.	.	.	.	16A/	-cu-	16e\	-cu-	16cc#\	-cu-	.	.
!LO:TX:b:t=solo	!	!	!	!	!	!	!	!	!	!	!	!	!
!LO:TX:a:t=P:problem=mixed beam	!	!	!	!	!	!	!	!	!	!	!	!	!
!	!	!	!	!LO:TX:a:i:t=Solo	!	!	!	!	!	!	!	!	!
8D/L	.	4dd\	4aa\	4D,/	-li	4A/	-li	4d\	-li	4dd\	-li	.	.
8d\J	.	.	.	.	.	.	.	.	.	.	.	.	.
!LO:LB:g=original	!	!	!	!	!	!	!	!	!	!	!	!	!
8F\L	X 6	4r	4r	16d\LL	Glo-	4r	.	4r	.	4r	.	.	.
.	.	.	.	16c\	.	.	.	.	.	.	.	.	.
8D\J	.	.	.	16B-\	.	.	.	.	.	.	.	.	.
.	.	.	.	16A\JJ	.	.	.	.	.	.	.	.	.
=40	=40	=40	=40	=40	=40	=40-	=40	=40	=40	=40	=40	=40	=40
!	!	!	!LO:TX:b:t=A	!	!	!	!	!	!	!LO:TX:a:i:t=Soli.	!	!	!
8G\L	.	0r	0r	8G\	.	1r	.	2r	.	2r	.	1ryy	1ryy
8F\	.	.	.	16A\	-ria	.	.	.	.	.	.	.	.
!	!	!	!	!LO:TX:a:t=sic&colon;custos c	!	!	!	!	!	!	!	!	!
.	.	.	.	16B-\	.	.	.	.	.	.	.	.	.
*	*	*	*	*custos:c	*	*	*	*	*	*	*	*	*
!	!	!	!	!LO:LB:g=original	!	!	!	!	!	!	!	!	!
8E\	X 6	.	.	8c\	Pa-	.	.	.	.	.	.	.	.
8C\J	.	.	.	16B-\	-tri	.	.	.	.	.	.	.	.
.	.	.	.	16c\	et	.	.	.	.	.	.	.	.
4F\	.	.	.	8A\	Fi-	.	.	4r	.	4r	.	.	.
.	.	.	.	16G\	-li-	.	.	.	.	.	.	.	.
.	.	.	.	16F,\	-o	.	.	.	.	.	.	.	.
8E\L	X 6	.	.	8E\	et	.	.	8c'/	et	8g/	Et	.	.
!	!	!	!	!	!	!	!	!LO:TX:a:i:t=Solo	!	!	!	!	!
8C\J	.	.	.	8C/	ſpi-	.	.	8g\	ſpi-	8cc\	ſpi-	.	.
!	!	!	!	!	!	!LO:PB:g=original	!	!	!	!	!	!	!
=41	=41	=41	=41	=41	=41	=41	=41	=41	=41	=41	=41	=41	=41
8F\L	.	.	.	8F\	-ri-	2r	.	8a\	-ri-	8cc\	-ri-	1ryy	1ryy
16E\L	.	.	.	16E\	-tu-	.	.	16g\	-tu-	16dd\	-tu-	.	.
16F\JJ	.	.	.	16F\	-i	.	.	16a\	-i	16cc\	-i	.	.
!LO:TX:a:t=P:problem=mixed beam	!	!	!	!LO:TX:a:t=P:problem=mixed beam	!	!	!	!	!	!	!	!	!
!	!	!	!	!	!	!	!	!LO:LB:g=original	!	!	!	!	!
8G\L	X 4	.	.	(>8G\L	ſan-	.	.	4d\	ſan-	(>8cc\L	ſan-	.	.
8GG/J	X 3	.	.	8GG/J)	.	.	.	.	.	8bn\J)	.	.	.
8C/L	.	.	.	4C/	-cto	4r	.	4e\	-cto	4cc\	-cto	.	.
8D/	.	.	.	.	.	.	.	.	.	.	.	.	.
8E/	X 6	.	.	4r	.	(>16c\LL	ſi-	4r	.	4r	.	.	.
.	.	.	.	.	.	16d\JJ)	.	.	.	.	.	.	.
*	*Xreverse	*	*	*	*	*	*	*	*	*	*	*	*
8C/J	X 7-	.	.	.	.	(>16c\LL	-cut	.	.	.	.	.	.
.	.	.	.	.	.	16B-\JJ)	.	.	.	.	.	.	.
=42	=42	=42	=42	=42	=42	=42	=42	=42-	=42	=42	=42	=42	=42
16F\LL	.	1r	1r	1r	.	8A/	e-	1r	.	1r	.	1ryy	1ryy
16G\	.	.	.	.	.	.	.	.	.	.	.	.	.
16F\	.	.	.	.	.	8A/	-rat	.	.	.	.	.	.
16E\JJ	.	.	.	.	.	.	.	.	.	.	.	.	.
8D/L	.	.	.	.	.	(>16d\LL	in	.	.	.	.	.	.
.	.	.	.	.	.	16e\JJ)	.	.	.	.	.	.	.
8D/J	.	.	.	.	.	(>16d\LL	prin-	.	.	.	.	.	.
.	.	.	.	.	.	16c\JJ)	.	.	.	.	.	.	.
16G\LL	X n	.	.	.	.	8.Bn\	-ci-	.	.	.	.	.	.
16A\	.	.	.	.	.	.	.	.	.	.	.	.	.
16G\	.	.	.	.	.	.	.	.	.	.	.	.	.
16F\JJ	.	.	.	.	.	16A/	-pi-	.	.	.	.	.	.
!	!	!	!	!	!	!	!	!	!	!LO:TX:a:t=1	!	!	!
8E\L	X 6	.	.	.	.	8G/	-o	.	.	.	.	.	.
8BBn\J	X 6	.	.	.	.	8g\	et	.	.	.	.	.	.
!	!	!	!LO:TX:a:t=P:problem=w źródle ta adnotacja zapisana na pięciolinii, za taktem 42	!	!	!	!	!	!	!	!	!	!
!	!	!	!LO:TX:b:i:t=Verte Cito&colon;	!	!	!	!	!	!	!	!	!	!
!	!	!	!LO:PB:g=original	!	!	!	!	!	!	!	!	!	!
=43	=43	=43-	=43	=43-	=43	=43	=43	=43-	=43	=43	=43	=43	=43
!LO:TX:a:t=P:problem=mixed beam	!	!	!	!	!	!	!	!	!	!	!	!	!
8C/L	.	2r	2r	2r	.	8e\	nunc	2r	.	2r	.	1ryy	1ryy
8F\J	.	.	.	.	.	(>16d\LL	et	.	.	.	.	.	.
.	.	.	.	.	.	16c\JJ)	.	.	.	.	.	.	.
!LO:TX:a:t=P:problem=mixed beam	!	!	!	!	!	!	!	!	!	!	!	!	!
8G\L	.	.	.	.	.	4Bn\	ſem-	.	.	.	.	.	.
8GG/J	.	.	.	.	.	.	.	.	.	.	.	.	.
!LO:TX:a:t=P:problem=mixed beam	!	!	!	!	!	!	!	!	!	!	!	!	!
8C/L	.	4r	4r	4r	.	4c\	-per	4r	.	4r	.	.	.
16c\L	.	.	.	.	.	.	.	.	.	.	.	.	.
16B-\JJ	.	.	.	.	.	.	.	.	.	.	.	.	.
!LO:TX:b:t=Tutti	!	!	!	!LO:TX:a:i:t=Tutti	!	!	!	!	!	!LO:TX:a:i:t=Tutti	!	!	!
8A\L	X #_	8cc#X\L	8ee\L	8A\	Et	8e\	et	8e\	Et	8cc#X\	Et	.	.
8G\J	.	8cc#\J	8aa\J	8G\	in	8c#X\	in	8e\	in	8cc#\	in	.	.
!	!	!	!	!	!	!	!	!	!	!LO:LB:g=original	!	!	!
=44	=44	=44	=44	=44	=44	=44	=44	=44	=44	=44	=44	=44	=44
8F\L	X 6	8dd\L	8ff\L	8F\	ſae-	8A/	ſae-	8f\	ſae-	8dd\	ſae-	1ryy	1ryy
8E\	X 6/	16dd\L	16ff\L	16F\	-cu-	16A/	-cu-	16f\	-cu-	16dd\	-cu-	.	.
.	.	16ee\JJ	16gg\JJ	16E\	-la	16G/	-la	16g\	-la	16cc#X\	-la	.	.
8F\	X 6	8dd\L	8ff\L	8F\	ſae-	8A/	ſae-	8f\	ſae-	8dd\	ſae-	.	.
!	!	!	!	!LO:LB:g=original	!	!	!	!	!	!	!	!	!
8D\J	.	8dd\J	8ff\J	8D/	-cu-	8A/	-cu-	8f\	-cu-	8dd\	-cu-	.	.
8C#X/L	X 6	8ee\L	8aa\L	8C#X/	-lo-	8c#X\	-lo-	8a\	-lo-	8ee\	-lo-	.	.
!	!	!	!	!	!	!LO:LB:g=original	!	!	!	!	!	!	!
8AA/J	X #	8cc#X\J	8aa\	8AA,/	-rum	8c#X\	-rum	8a\	-ru(m)	8ee,\	-rum,	.	.
!	!	!LO:LB:g=original	!	!	!	!	!	!	!	!	!	!	!
8d\L	X n	8ff\L	8aa\	8d\	ſae-	8d\	ſae-	8f\	ſae-	8ff\	ſae-	.	.
8A\J	X #	8ee\J	8aa\J	8A\	-cu-	8c#X\	-cu-	8a\	-cu-	8ee\	-cu-	.	.
=45	=45	=45	=45	=45	=45	=45	=45	=45	=45	=45	=45	=45	=45
!LO:TX:a:t=P:problem=mixed beam	!	!	!	!	!	!	!	!	!	!	!	!	!
8B-\L	X 3	8dd\L	8ff\L	8B-\	-lo-	8d\	-lo-	8f\	-lo-	8dd\	-lo-	1ryy	1ryy
8G\	X 6	16ee\L	16gg\L	8G\	-rum	8B-\	-rum	(>16g\LL	-rum	(>16ee\LL	-rum	.	.
.	X 5	16dd\JJ	16ff\JJ	.	.	.	.	16f\JJ)	.	16dd\JJ)	.	.	.
!	!	!	!	!LO:TX:a:t=P:problem=mixed beam	!	!	!	!	!	!	!	!	!
8A\	.	8dd\L	8ee\L	(>8A\L	A-	4A/	A-	4e\	A-	(>8dd\L	A-	.	.
.	X #	.	.	.	.	.	.	.	.	.	.	.	.
8AA/J	.	8cc#X\J	8aa\J	8AA/J)	.	.	.	.	.	8cc#X\J)	.	.	.
8D\L	X n	8dd\L	8ff\L	8D,/	-men	8A,/	-men	4f\	-men	8dd,\	-men,	.	.
8D\J	.	16dd\L	16ff\L	4D/	a-	8A/	A-	.	.	4dd\	a-	.	.
.	.	16cc#X\JJ	16ee\JJ	.	.	.	.	.	.	.	.	.	.
8F\L	X 6	8dd\L	8ff\L	.	.	4A/	-men	8r	.	.	.	.	.
8D\J	.	16ee\L	16gg\L	8D/	-men	.	.	8f\	A-	8dd\	-men,	.	.
.	.	16dd\JJ	16ff\JJ	.	.	.	.	.	.	.	.	.	.
!LO:LB:g=original	!	!	!	!	!	!	!	!	!	!	!	!	!
=46	=46	=46	=46	=46	=46	=46	=46	=46	=46	=46	=46	=46	=46
16A\LL	X #_	16cc#X\LL	16ee\LL	16A\LL	A-	8r	.	8e\	-men	16cc#X\LL	a-	1ryy	1ryy
!	!	!	!	!	!	!	!	!	!	!LO:SIC:o=16b-\	!	!	!
16G\	.	16ee\	16aa\	16G\	.	.	.	.	.	16bn	.	.	.
16A\	.	16ee\	16aa\	16A\	.	8A/	A-	8r	.	16cc#\	.	.	.
16B-\JJ	.	16cc#\JJ	16ee\JJ	16B-\JJ	.	.	.	.	.	16dd\JJ	.	.	.
16A\LL	.	16a\LL	16cc#X\LL	16A\LL	.	4A/	-men	8r	.	16cc#X\LL	.	.	.
16B-\	.	16cc#X\	16ee\	16B-\	.	.	.	.	.	16dd\	.	.	.
!	!	!	!	!	!	!	!	!	!	!LO:SIC:o=16b-\	!	!	!
16A\	X X	16ee\	16a\	16A\	.	.	.	(>8e\	A-	16bn	.	.	.
16G\JJ	.	16cc#\JJ	16ee\JJ	16G\JJ	.	.	.	.	.	16cc#\JJ	.	.	.
8F\L	X 6	8dd\L	8ff\L	8F\	-men	4r	.	8f\)	.	8dd\	.	.	.
8D\J	.	16ee\L	16gg\L	8D,/	.	.	.	(>16g\LL	-men	(>16ee\LL	-men,	.	.
.	.	16dd\JJ	16ff\JJ	.	.	.	.	16f\JJ)	.	16dd\JJ)	.	.	.
!LO:TX:a:t=P:problem=mixed beam	!	!	!	!LO:TX:a:t=P:problem=mixed beam	!	!	!	!	!	!	!	!	!
8A\L	.	8dd\L	8ee\L	(>8A\L	A-	4A/	A-	4e\	.	(>8dd\L	a-	.	.
.	X #	.	.	.	.	.	.	.	.	.	.	.	.
8AA/J	.	8cc#X\J	8aa\J	8AA/J)	.	.	.	.	.	8cc#X\J)	.	.	.
!	!	!	!	!	!	!	!	!	!	!LO:LB:g=original	!	!	!
=47	=47	=47	=47	=47	=47	=47	=47	=47	=47	=47	=47	=47|	=47|
4D/	.	8dd\L	8ff\L	4D/	-men	4A/	-men	4f\	.	8dd,\	-men,	1ryy	1ryy
.	.	8dd\	8dd\J	.	.	.	.	.	.	(>4dd\	a-	.	.
4AA/	.	8dd\	8ee\L	4AA/	A-	4A/	A-	4e\	A-	.	.	.	.
.	.	8cc#X\J	8aa\J	.	.	.	.	.	.	8cc#X\)	.	.	.
*	*	*2\right	*2\right	*	*	*	*	*	*	*	*	*	*
!	!	!	!	!	!	!	!	!LO:TX:a:t=P:problem=w źródle # zapisany nad nutą	!	!	!	!	!
2D;;/	.	2dd;\	2ff#X;\	2D;</	-men	2A;</	-men	2f#X\	-men	2dd;\	-men,	.	.
==	==	==	==;;	==	==	==	==	==	==	==;;	==	==	==
*-	*-	*-	*-	*-	*-	*-	*-	*-	*-	*-	*-	*-	*-
!!!system-decoration: [g1][g2][g3]s9
!!!RDF**kern: > = above
!!!RDF**kern: < = below
!!!EED: Antoni Szymański
!!!EEV: 2020-11-24
!!!ENC: Andrzej Borzym
!!!END: 2020-05-15
